svgs/nomadtable.svg

<svg width="192" height="192" viewBox="0 0 192 192" fill="none" xmlns="http://www.w3.org/2000/svg">
<path d="M36.7958 96C27.7427 88.2962 22 76.8187 22 64C22 40.804 40.804 22 64 22C76.8187 22 88.2962 27.7427 96 36.7958M36.7958 96C27.7427 103.704 22 115.181 22 128C22 151.196 40.804 170 64 170C76.8187 170 88.2962 164.257 96 155.204M36.7958 96C44.1245 89.7635 53.6228 86 64 86C74.3772 86 83.8754 89.7635 91.2042 96M91.2042 96C92.9285 94.5327 94.5327 92.9285 96 91.2042M91.2042 96C92.9285 97.4673 94.5327 99.0715 96 100.796M100.796 96C108.125 102.237 117.623 106 128 106C138.377 106 147.875 102.237 155.204 96M100.796 96C99.0715 94.5327 97.4673 92.9285 96 91.2042M100.796 96C99.0715 97.4673 97.4673 99.0715 96 100.796M155.204 96C164.257 103.704 170 115.181 170 128C170 151.196 151.196 170 128 170C115.181 170 103.704 164.257 96 155.204M155.204 96C164.257 88.2962 170 76.8187 170 64C170 40.804 151.196 22 128 22C115.181 22 103.704 27.7427 96 36.7958M96 91.2042C102.237 83.8754 106 74.3772 106 64C106 53.6228 102.237 44.1245 96 36.7958M96 100.796C89.7635 108.125 86 117.623 86 128C86 138.377 89.7635 147.875 96 155.204" stroke="black" stroke-width="12"/>
</svg>

<svg xmlns="http://www.w3.org/2000/svg" width="192" height="192" fill="none" viewBox="0 0 192 192"><path stroke="#000" stroke-width="12" d="M36.796 96C27.743 88.296 22 76.819 22 64c0-23.196 18.804-42 42-42 12.819 0 24.296 5.743 32 14.796M36.796 96C27.743 103.704 22 115.181 22 128c0 23.196 18.804 42 42 42 12.819 0 24.296-5.743 32-14.796M36.796 96A41.83 41.83 0 0 1 64 86a41.83 41.83 0 0 1 27.204 10m0 0A42 42 0 0 0 96 91.204M91.204 96A42 42 0 0 1 96 100.796M100.796 96A41.83 41.83 0 0 0 128 106a41.83 41.83 0 0 0 27.204-10m-54.408 0A42 42 0 0 1 96 91.204M100.796 96A42 42 0 0 0 96 100.796M155.204 96c9.053 7.704 14.796 19.181 14.796 32 0 23.196-18.804 42-42 42-12.819 0-24.296-5.743-32-14.796M155.204 96C164.257 88.296 170 76.819 170 64c0-23.196-18.804-42-42-42-12.819 0-24.296 5.743-32 14.796m0 54.408A41.83 41.83 0 0 0 106 64a41.83 41.83 0 0 0-10-27.204m0 64A41.83 41.83 0 0 0 86 128a41.83 41.83 0 0 0 10 27.204"/></svg>
